super_admin_panel/assets/icons/menu_Panchayat.svg

<?xml version="1.0" encoding="UTF-8" standalone="no"?>


<!-- Uploaded to: SVG Repo, www.svgrepo.com, Generator: SVG Repo Mixer Tools -->
<svg 
   xmlns:dc="http://purl.org/dc/elements/1.1/"
   xmlns:cc="http://creativecommons.org/ns#"
   xmlns:rdf="http://www.w3.org/1999/02/22-rdf-syntax-ns#"
   xmlns:svg="http://www.w3.org/2000/svg"
   xmlns="http://www.w3.org/2000/svg"
   version="1.1"
   width="100%"
   height="100%"
   viewBox="0 0 14 14"
   id="svg2">
  <metadata
     id="metadata8">
    <rdf:RDF>
      <cc:Work
         rdf:about="">
        <dc:format>image/svg+xml</dc:format>
        <dc:type
           rdf:resource="http://purl.org/dc/dcmitype/StillImage" />
        <dc:title></dc:title>
      </cc:Work>
    </rdf:RDF>
  </metadata>
  <defs
     id="defs6" />
  <rect
     width="14"
     height="14"
     x="0"
     y="0"
     id="canvas"
     style="fill:none;stroke:none;visibility:hidden" />
  <path
     d="M 7,0 C 6.75,0.0032 6.5,0.1644239 6.5,0.5 l 0,4.03125 C 3.906144,4.6951647 3,6.060613 3,7 l 8,0 C 11,6.060613 10.093856,4.6951647 7.5,4.53125 L 7.5,0.5 C 7.5,0.1516409 7.25,-0.0031957 7,0 z M 8,0 8,3 12,3 10,1.5 12,0 8,0 z m -7,8 0,1 1,0 0,4 -1,0 -1,1 14,0 -1,-1 -1,0 0,-4 1,0 0,-1 -12,0 z m 3,1 1,0 0,4 -1,0 0,-4 z m 2,0 2,0 0,4 -2,0 0,-4 z m 3,0 1,0 0,4 -1,0 0,-4 z"
     id="government"
     style="fill:#000000;fill-opacity:1;stroke:none" />
</svg>

<svg xmlns="http://www.w3.org/2000/svg" viewBox="0 0 14 14"><path d="M7 0c-.25.003-.5.164-.5.5v4.031C3.906 4.695 3 6.061 3 7h8c0-.94-.906-2.305-3.5-2.469V.5c0-.348-.25-.503-.5-.5zm1 0v3h4l-2-1.5L12 0H8zM1 8v1h1v4H1l-1 1h14l-1-1h-1V9h1V8H1zm3 1h1v4H4V9zm2 0h2v4H6V9zm3 0h1v4H9V9z" style="fill:#000;fill-opacity:1;stroke:none"/></svg>
